public/extensions/MetaMask_v10.22.2/images/contract/spwn.svg

<?xml version="1.0" encoding="UTF-8"?>
<svg width="24px" height="24px" viewBox="0 0 24 24" version="1.1" xmlns="http://www.w3.org/2000/svg" xmlns:xlink="http://www.w3.org/1999/xlink">
    <title>coinIcon_Spwn Copy 52</title>
    <defs>
        <linearGradient x1="50%" y1="29.9080293%" x2="6.05964135%" y2="76.1425042%" id="linearGradient-1">
            <stop stop-color="#C578F3" offset="0%"></stop>
            <stop stop-color="#54FEB0" offset="86.5156967%"></stop>
            <stop stop-color="#53FFB0" offset="86.6677894%"></stop>
            <stop stop-color="#53FFB0" offset="100%"></stop>
        </linearGradient>
        <linearGradient x1="60.1639586%" y1="20.06635%" x2="19.1783098%" y2="122.03873%" id="linearGradient-2">
            <stop stop-color="#C578F3" offset="0%"></stop>
            <stop stop-color="#54FEB0" offset="86.5156967%"></stop>
            <stop stop-color="#53FFB0" offset="92.8420183%"></stop>
            <stop stop-color="#53FFB0" offset="100%"></stop>
        </linearGradient>
        <circle id="path-3" cx="11.985056" cy="11.985056" r="10.2216687"></circle>
    </defs>
    <g id="coinIcon_Spwn-Copy-52" stroke="none" stroke-width="1" fill="none" fill-rule="evenodd">
        <circle id="Oval" fill="#0B0E1C" cx="12" cy="12" r="12"></circle>
        <circle id="Oval" fill="#0B0E1C" cx="12.014944" cy="10.2216687" r="10.2216687"></circle>
        <g id="Shape" transform="translate(1.763387, 1.763387)" fill="url(#linearGradient-1)" fill-rule="nonzero" stroke="url(#linearGradient-1)" stroke-linejoin="round" stroke-width="0.5">
            <path d="M28.3276096,-0.448318804 C28.3276096,-0.448318804 19.1253801,2.29942618 19.0957951,2.29942618 C19.0811335,2.29942618 17.6864517,1.48790931 16.1896625,1.0657553 C14.6316089,0.626818399 12.8512755,0.557879486 12.8512755,0.557879486 C11.2369319,-0.257768551 9.64824609,-0.00886550949 8.06820014,0.606162545 L8.82903088,1.29942465 C5.16599476,3.10939386 5.33748277,10.1631098 5.05105853,13.3087382 C5.05105853,13.3727713 6.27503779,9.429827 6.27503779,9.429827 L9.94252475,8.42930907 C9.94252475,8.42930907 9.66186041,9.91343218 9.28799038,10.0939127 C8.88374996,10.2888523 8.22947741,10.4450622 7.73543487,10.5612514 L5.37649302,17.7833126 L6.19178102,17.5080733 L8.3342029,11.1620786 C8.3342029,11.1620786 9.4369624,10.8617941 9.81057062,10.648006 C10.0611264,10.5044478 10.2475378,9.99863758 10.3035659,9.80705453 C10.4713885,9.23462918 10.8106991,8.19099215 10.8198626,7.41020087 L6.27058696,8.65936364 C6.52506992,5.47293996 7.78256134,2.45692707 9.56001486,1.85222694 C11.1565813,3.09919503 12.5490377,4.581046 13.6885558,6.2457271 L12.8607008,6.69318454 C12.5766328,6.84810344 12.3564475,7.03323153 12.2663836,7.47139384 L12.1768433,8.03220028 C12.1302404,8.39780889 12.2941358,8.78278237 12.4760964,9.1047555 L13.6804396,11.1088897 L13.3518633,12.8943301 L8.40672531,14.6273563 C7.97865984,14.8049966 7.82340429,14.8525051 7.60688432,15.4486847 L7.04503202,17.2206988 L7.78570311,16.9707629 C7.78570311,16.9707629 8.0789345,15.9328063 8.17083113,15.6697023 C8.26272775,15.4065984 8.62638704,15.2581344 8.94684707,15.1473674 C10.9960633,14.4396462 11.5050292,14.2627805 11.5050292,14.2627805 C11.5050292,14.2627805 11.4063254,15.4246722 10.7245624,15.9790237 C11.7862171,15.6206447 12.0621688,15.0792031 12.4001704,13.9730821 L14.0786583,13.2981521 L14.5473049,11.1210251 L17.7204875,9.23617837 C17.9156435,9.12016993 18.0852202,8.96669693 18.2190856,8.78484796 C18.3529772,8.60299898 18.4484868,8.39649208 18.499907,8.17756585 L19.7694419,2.80058884 L27.5638989,0.597383807 C27.5638989,0.597383807 27.4879729,1.32885924 27.1525895,2.03683864 C26.9955013,2.36862329 26.8323913,2.74017047 26.4590449,3.19124268 C26.0959092,3.63017958 25.5783035,4.19434259 25.2442291,4.32731465 L20.4006748,5.96145091 L20.2370412,6.7688366 L25.2253785,5.0853845 C25.2376838,5.80420822 24.6381303,6.91549317 24.0121336,7.58190266 C23.3277525,8.31002151 21.6775405,8.93227912 20.5221564,9.32964611 C19.8393462,9.56434825 19.3081261,9.75154193 19.3081261,9.75154193 L19.0505013,10.5566038 L21.3411098,9.82357922 C21.3369208,10.0319451 21.1460586,10.5207143 21.0591364,10.7169449 C20.7360582,11.4502277 20.3640209,11.9020745 19.3727941,12.2898882 C18.3815672,12.6777019 13.0821952,14.4938678 13.0821952,14.4938678 L12.7771822,15.3490202 C12.7771822,15.3490202 17.558163,13.7977655 19.7877688,12.9834085 C21.3882363,12.3988478 22.0037604,11.1282546 22.2488181,9.50212249 C24.8755954,8.14400009 25.903738,7.0660227 26.068157,4.65186976 C27.9505978,3.25527583 28.3933249,1.36526518 28.3276096,-0.448318804 Z M9.23981665,0.759274063 C11.4762297,0.103708895 13.4044879,1.20260033 16.0207927,5.13495855 L14.4022601,5.90129073 C13.0855988,4.09338711 11.3678388,2.31001231 9.23981665,0.759274063 L9.23981665,0.759274063 Z M16.998667,8.7786512 L14.2234413,10.3856766 L13.0871696,8.58887554 C12.9894084,8.43093572 12.9511312,8.24410352 12.9790406,8.06111847 L13.0282616,7.72959201 C13.0431849,7.62889473 13.059941,7.5194187 13.1293217,7.44376663 C13.342438,7.21138827 13.8362188,6.97229676 13.8362188,6.97229676 L16.3616742,5.7365603 L17.4351105,7.31905691 C17.5601266,7.50175794 17.6241924,7.71838621 17.6183801,7.93873254 C17.6184063,7.96328718 17.6158667,7.98776437 17.6107875,8.01180262 L17.6107875,8.01180262 C17.516011,8.33739052 17.3186034,8.57415825 16.998667,8.7786512 Z M17.9786359,6.70893463 C16.9745801,5.28471349 16.2881045,4.08796494 15.4246428,3.04252053 C14.9130587,2.42284491 14.2865384,1.75152965 13.4526616,1.25708015 C15.1450257,1.34460933 17.2392738,1.95060045 18.8300542,3.05646323 L17.9786359,6.70893463 Z"></path>
        </g>
        <mask id="mask-4" fill="white">
            <use xlink:href="#path-3"></use>
        </mask>
        <use id="Mask" stroke="url(#linearGradient-2)" stroke-width="0.657534247" xlink:href="#path-3"></use>
    </g>
</svg>

<svg xmlns="http://www.w3.org/2000/svg" width="250" height="250"><linearGradient id="a" x1=".5" x2=".061" y1=".299" y2=".761" gradientTransform="matrix(23.28262 0 0 18.23175 5.051 -.448)" gradientUnits="userSpaceOnUse"><stop offset="0" stop-color="#c578f3"/><stop offset=".865" stop-color="#54feb0"/><stop offset=".867" stop-color="#53ffb0"/><stop offset="1" stop-color="#53ffb0"/></linearGradient><linearGradient id="b" x1="14.063" x2="5.684" y1="5.866" y2="26.712" gradientUnits="userSpaceOnUse"><stop offset="0" stop-color="#c578f3"/><stop offset=".865" stop-color="#54feb0"/><stop offset=".928" stop-color="#53ffb0"/><stop offset="1" stop-color="#53ffb0"/></linearGradient><path fill="#0b0e1c" fill-rule="evenodd" d="M250 125c0 69.035-55.965 125-125 125S0 194.035 0 125 55.965 0 125 0s125 55.965 125 125zm0 0"/><path fill="#0b0e1c" fill-rule="evenodd" d="M231.633 106.477c0 58.804-47.672 106.476-106.477 106.476S18.68 165.281 18.68 106.477C18.68 47.672 66.352 0 125.156 0s106.477 47.672 106.477 106.477zm0 0"/><path fill="url(#a)" stroke="url(#a)" stroke-linejoin="round" stroke-width=".5" d="M28.328-.448s-9.203 2.747-9.232 2.747c-.015 0-1.41-.811-2.906-1.233C14.632.626 12.85.558 12.85.558 11.237-.258 9.648-.01 8.068.606l.76.693c-3.662 1.81-3.49 8.864-3.777 12.01 0 .064 1.224-3.879 1.224-3.879l3.668-1s-.281 1.483-.655 1.664c-.404.195-1.058.351-1.553.467l-2.358 7.222.815-.275 2.142-6.346s1.103-.3 1.477-.514c.25-.144.436-.65.493-.84.167-.573.507-1.617.516-2.398L6.27 8.66c.255-3.187 1.513-6.203 3.29-6.808a19.683 19.683 0 0 1 4.128 4.394l-.827.447c-.284.155-.505.34-.595.778l-.09.561c-.046.366.118.75.3 1.073l1.205 2.004-.33 1.785-4.944 1.733c-.428.178-.584.225-.8.822l-.562 1.772.74-.25s.294-1.038.386-1.301c.092-.263.455-.412.776-.523 2.049-.707 2.558-.884 2.558-.884s-.099 1.162-.78 1.716c1.061-.359 1.337-.9 1.675-2.006l1.678-.675.47-2.177 3.172-1.885c.195-.116.365-.27.5-.451s.228-.389.28-.608l1.27-5.376L27.563.597s-.076.732-.412 1.44c-.157.332-.32.703-.693 1.154-.363.44-.88 1.003-1.215 1.136l-4.843 1.635-.164.807 4.988-1.684c.013.72-.587 1.83-1.213 2.497-.684.728-2.335 1.35-3.49 1.747-.683.235-1.214.422-1.214.422l-.257.805 2.29-.732c-.004.208-.195.697-.282.893-.323.733-.695 1.185-1.686 1.573-.991.388-6.29 2.204-6.29 2.204l-.306.855s4.781-1.551 7.01-2.366c1.601-.584 2.217-1.855 2.462-3.481 2.626-1.358 3.655-2.436 3.819-4.85 1.882-1.397 2.325-3.287 2.26-5.1zM9.24.759c2.236-.655 4.165.443 6.78 4.376l-1.618.766A23.544 23.544 0 0 0 9.24.76zm7.759 8.02-2.775 1.607-1.137-1.797a.78.78 0 0 1-.108-.528l.05-.331c.014-.101.031-.21.1-.286.213-.233.707-.472.707-.472l2.525-1.235 1.074 1.582c.125.183.19.4.183.62 0 .024-.002.049-.007.073-.095.325-.293.562-.612.767zm.98-2.07c-1.004-1.424-1.691-2.62-2.554-3.666-.512-.62-1.138-1.292-1.972-1.786 1.692.088 3.786.694 5.377 1.8zm0 0" transform="matrix(10.41667 0 0 10.41667 18.369 18.369)"/><path fill="none" stroke="url(#b)" stroke-width=".658" d="M22.207 11.985c0 5.645-4.577 10.222-10.222 10.222S1.763 17.63 1.763 11.985 6.34 1.763 11.985 1.763 22.207 6.34 22.207 11.985zm0 0" transform="scale(10.41667)"/></svg>
